X:157
T:Chances. JJo8.157, The
B:J.Johnson Choice Collection Vol 8 1758
Z:vmp.Simon Wilson 2013 www.village-music-project.org.uk
M:9/8
L:1/8
Q:3/8=130
K:G
|:c|TB2G Bcd efg|TB2G Bcd cAF|B2G Bcd efg|[G,G]2g (f/g/af)g2:|
|:[G,G]2g (f/g/af) gdB|[G,G]2g faf bge|[G,G]2g (f/g/af) gdB|ecA dBG AFD:|}

